X: 728
T: Ey Terennümsâz
C: Ahmet Avni Konuk
O: Turkey
F: http://compmusic.upf.edu/node/140
N: ruyiirak--kupe--agirevfer--ey--ahmet_avni_konuk
N: makam= ruyiirak
N: form= kupe
N: usul= agirevfer = 9/4
M: 9/4
L: 1/16
K: C _1/4B _1/4e ^f 
Q: 1/4=72
%%MIDI tuningsystem comma53
z4 d8 =e4 =f3e d2^3/4c2 c4 d4 z4  | \
w:  Ey  te ren *  *  *  nüm  | 
z4 ^3/4c2d2 =e2^3/4f2 g2=f2 e2d2 d2c2 cBB^3/4A B2=c2 B4  | 
w:  sâz  *  *  *  o *  lan  *  *  *  mut  | 
z4 B8 d4 c2d=e d2c2 B3^A G4 B4  | \
w:  rıb  he le  *  *  *  *  dik  | 
z4 d8 =e2=f2 e2d2 d2^3/4c2 d8 z4  | 
w:  kat le  *  bak    | 
z4 d8 =e2^3/4f2 g4 ^2/4f2e2 ^1/4f3e d2e2 d4  | \
w:  Pek  ha *  zîn  *  *  nağ  | 
z4 d2=e2 d4 B4 dcde d2c2 B3^3/4A B2c2 B4  | 
w:  mâ *  *  tı  cem  *  *  *  *  *  et  | 
z4 A2_2/4B2 c4 B2A2 A2G2 A2B2 A2G2 ^3/4F4 B4  | \
w:  miş  *  *  bi *  ze  *  *  *  Rûy_  | 
z4 A2_2/4B2 c4 B2A2 A2G2 G2^3/4F2 F3^3/4E F4 z4  | 
w:  i  *  *  A *  rak    | 
|


